src/assets/img/Icon/Checkmark.svg

<?xml version="1.0" encoding="UTF-8"?>
<svg width="256px" height="256px" viewBox="0 0 256 256" version="1.1" xmlns="http://www.w3.org/2000/svg" xmlns:xlink="http://www.w3.org/1999/xlink">
    <!-- Generator: Sketch 57.1 (83088) - https://sketch.com -->
    <title>Icon / Checkmark</title>
    <desc>Created with Sketch.</desc>
    <g id="Icon-/-Checkmark" stroke="none" stroke-width="1" fill="none" fill-rule="evenodd">
        <path d="M92.7217624,206.779046 L21.2216926,135.303699 C16.9261025,131.009594 16.9261025,124.047191 21.2216926,119.752657 L36.7776844,104.201614 C41.0732745,99.90708 48.0385157,99.90708 52.3341058,104.201614 L100.499973,152.350397 L203.665894,49.2205786 C207.961484,44.9264738 214.926726,44.9264738 219.222316,49.2205786 L234.778307,64.7716209 C239.073898,69.0657257 239.073898,76.0281289 234.778307,80.3226633 L108.278184,206.779475 C103.982164,211.07358 97.0173526,211.07358 92.7217624,206.779046 L92.7217624,206.779046 Z" id="Path" fill="#FFFFFF" fill-rule="nonzero"></path>
    </g>
</svg>

<svg width="256" height="256" xmlns="http://www.w3.org/2000/svg"><path d="M92.722 206.779l-71.5-71.475c-4.296-4.294-4.296-11.257 0-15.551l15.556-15.551c4.295-4.295 11.26-4.295 15.556 0L100.5 152.35 203.666 49.22c4.295-4.294 11.26-4.294 15.556 0l15.556 15.552c4.296 4.294 4.296 11.256 0 15.55l-126.5 126.457c-4.296 4.295-11.26 4.295-15.556 0z" fill="#FFF"/></svg>
